16x16/actions/view-financial-account-liability.svg

<svg version="1.1" viewBox="0 0 16 16" xmlns="http://www.w3.org/2000/svg">
    <style id="current-color-scheme" type="text/css">.ColorScheme-Text { color:#555e70; }</style>
    <path class="ColorScheme-Text" d="m11.5 2c-1.380712 0-2.5 1.1192881-2.5 2.5s1.119288 2.5 2.5 2.5 2.5-1.1192881 2.5-2.5-1.119288-2.5-2.5-2.5zm-10.5 4v1h5v1h1v4h-1v1h-5v1h7v-8h-7zm1 2c-0.365911 0-0.70494 0.1057638-1 0.2773438v1.7226562c0-0.5522847 0.4477153-1 1-1s1 0.4477153 1 1c0 0.552285-0.4477153 1-1 1s-1-0.447715-1-1v1.722656c0.29506 0.17158 0.634089 0.277344 1 0.277344 1.1045701 0 2-0.89543 2-2 0-1.104569-0.8954299-2-2-2zm9.646484 0c-1.032822 9.664e-4 -1.9919133 0.5237905-2.646484 1.3925781v2.6074219h6.146484c0-2.2091399-1.567004-4.0000013-3.5-4zm0 1c1.05817 0.0017815 2.000793 0.8028154 2.353516 2h-4.7070312c0.3527225-1.1971843 1.2953452-1.9982181 2.3535152-2z" fill="currentColor"/>
</svg>

<svg viewBox="0 0 16 16" xmlns="http://www.w3.org/2000/svg"><path d="M11.5 2a2.5 2.5 0 1 0 0 5 2.5 2.5 0 0 0 0-5zM1 6v1h5v1h1v4H6v1H1v1h7V6H1zm1 2c-.366 0-.705.106-1 .277V10a1 1 0 1 1 2 0 1 1 0 0 1-2 0v1.723c.295.171.634.277 1 .277a2 2 0 1 0 0-4zm9.646 0c-1.032.001-1.991.524-2.646 1.393V12h6.146c0-2.21-1.567-4-3.5-4zm0 1c1.059.002 2.001.803 2.354 2H9.293c.353-1.197 1.295-1.998 2.353-2z" fill="currentColor" style="color:#555e70"/></svg>
